images/union.svg

<svg fill="none" height="84" viewBox="0 0 67 84" width="67" xmlns="http://www.w3.org/2000/svg"><path clip-rule="evenodd" d="m61.9197 28.2095c0-15.5795-12.63-28.2095-28.2095-28.2095-15.5794 0-28.20942 12.63-28.20942 28.2095 0 15.5794 12.63002 28.2089 28.20942 28.2089 15.5795 0 28.2095-12.6295 28.2095-28.2089zm-31.0472-11.4415.14-.0001c.0608.0001.1068.0006.1338.0009l.0277.0004 2.0625-.0017.7472.0006 2.0625.0011h.0065l.0909.0004c.3562.0025 1.5886.0192 1.9964.1322.4339.0552 1.4217 1.0123 1.6951 1.2847l.0527.0529.0186.0188 5.7399 6.0019s1.0389.9151.936 2.3937c-.0261.3734-.0612 2.3281-.0914 4.325l-.0059.3995c-.0305 2.0621-.0547 4.0597-.0576 4.2942l-.0002.0229.0024.013c.0153.0856.0876.591-.1681 1.3528-.2806.8376-.8485 1.6564-.8485 1.6564l-6.3001 9.8824s-.2493.602-.7556.8034c-.4649.1849-2.4162.213-2.4162.213h-4.662s-1.2975-.0138-1.6096-.0545c-1.3256-.1739-1.6084-1.0995-1.6084-1.0995l-6.2539-9.7448s-.5547-.8238-.8486-1.6564c-.2613-.7417-.1656-1.3658-.1656-1.3658l-.12-8.0093s-.1507-1.5969.12-2.3612c.2707-.7638 1.3476-1.6569 1.3476-1.6569l5.1732-5.4098s.056-.0512.1484-.1339l.1039-.0924c.1528-.1352.359-.3146.5722-.4912l.1605-.1313c.2139-.1723.4234-.3302.5822-.4267.3029-.1841 1.4413-.2121 1.9915-.2147zm3.7061 20.9574c0-.4039-.3307-.7341-.7346-.7341s-.7341.3302-.7341.7341c0 0-.0682 3.1338-.0682 3.235 0 1.0654-.8667 1.9326-1.932 1.9326-.7787 0-1.4775-.4633-1.7813-1.1803-.1364-.323-.509-.4744-.8325-.3379-.3231.137-.4744.5096-.3374.8326.5024 1.188 1.6613 1.9562 2.9512 1.9562 1.1605 0 2.1758-.6234 2.7376-1.5507.5618.9273 1.5771 1.5502 2.7382 1.5502 1.2898 0 2.4482-.7677 2.9506-1.9557.137-.323-.0143-.6961-.3373-.8326-.3236-.137-.6961.0143-.8326.3373-.3032.717-1.0021 1.1804-1.7807 1.1804-1.0659 0-1.9326-.8667-1.9326-1.9321 0-.1062-.0743-3.235-.0743-3.235zm8.3679-13.809c0-.4364-.3571-.7935-.7935-.7935h-5.9165c-.2972 0-.5547.1678-.6906.4122-.0886.1221-.1294.2784-.1007.438l.0082.044c.0044.0325.0094.0644.0176.0958l1.4764 8.0835-6.2286-.0022-.0957.0199 1.1484-8.0831c.005-.033.005-.0649.0038-.0974 0-.0029.0006-.0058.0011-.0087.0006-.003.0012-.0061.0012-.0094 0-.4364-.3577-.7935-.7941-.7935h-5.916c-.4364 0-.7935.3571-.7935.7935 0 .4363.3571.7935.7935.7935h5.4422l-1.0686 7.5212c-.0116.0814-.0044.1606.0165.2349-.0092.0827-.0198.2098-.0216.3684l.0002.1102c.0168 1.1268.5057 3.4823 4.3135 3.429l.0879-.0002c.6537-.0104 4.7214-.2464 4.2698-4.5187l-.0303.0066-1.3245-7.2505h5.4004c.4364 0 .7935-.3571.7935-.7935zm-10.35 41.2359c-.8034-.9195-1.7741-1.3757-2.9143-1.3691-1.1214.0066-2.0811.4711-2.8774 1.3939-.7979.9234-1.1924 2.041-1.1847 3.3528l.0616 10.7701c.0077 1.3008.4105 2.4118 1.209 3.3308.7984.9195 1.7675 1.3752 2.9076 1.3692 1.1303-.0067 2.0944-.4717 2.8917-1.3945.7968-.9234 1.1914-2.0404 1.1842-3.3529l-.0616-10.7694c-.0077-1.3015-.4133-2.4119-1.2161-3.3309zm30.7196-1.3248c-.3412-.2625-.7665-.4149-1.2288-.4149-.4617 0-.887.1524-1.2282.4149-.3835.2944-.6614.7192-.7616 1.2128-.0159.0683-.0264.1316-.0313.1998l-2.5418 17.008v.0154c-.0104.0473-.0209.0946-.0264.1475v.0258c-.0049.0369-.0049.0738-.0049.1106 0 .5355.3098.9922.756 1.2128.1783.0892.3836.142.5987.142.2152 0 .4199-.0528.6037-.142.3676-.1837.6411-.5249.7247-.9398.0105-.0473.016-.0892.0215-.142l.493-3.497h2.7569l.4623 3.4238.0258.2311c0 .005 0 .0105.0055.0154.0947.4045.3731.7352.7352.9085.1838.0947.3835.142.5987.142.2151 0 .4149-.0473.5987-.142.4567-.2206.7715-.6878.7715-1.2287 0-.021 0-.0422-.0006-.0633-.0007-.021-.0019-.0419-.0044-.0627-.0055-.0523-.0104-.1051-.0209-.1574 0-.0055 0-.0055-.0055-.0105l-2.4993-16.9975c-.0055-.0737-.016-.142-.0314-.2152-.1051-.4831-.3781-.9085-.7671-1.1974zm-15.9522.709c-.2625-.4303-.7401-.7143-1.281-.7143h-5.6767c-.5404 0-1.0186.284-1.281.7143-.147.2311-.2312.5041-.2312.7979 0 .2944.0842.5673.2312.7985.2624.4303.7406.7142 1.281.7142h1.5232v15.7319c0 .5145.2938.9663.7241 1.1815.1789.0891.3781.1414.5938.1414.2151 0 .4144-.0468.5932-.1414.4358-.2152.7297-.662.7297-1.1815v-15.7319h1.3547c.0529.005.1051.005.158.005.0523 0 .1051 0 .1574-.005.4726-.0528.8876-.3257 1.1236-.7142.1469-.2312.2311-.5096.2311-.7985 0-.2938-.0842-.5668-.2311-.7979zm-44.51842.1917c-.14307-.6922-.82046-1.1374-1.51326-.9943-.568988.1177-.970141.597-1.015814 1.1484l.09795 18.984 7.043564.0331c.74617-.0584 1.33332-.6813 1.33277-1.4423 0-.766-.59595-1.3911-1.34928-1.4423l-4.45836-.0083-.00003-.0049-.00031-.0389c-.00729-.925-.12762-16.1891-.13723-16.2345zm14.49022.1341c0-.7159-.5806-1.2954-1.2959-1.2948-.7154 0-1.2948.5805-1.2948 1.2959l.0002.0488.0371 7.7511.0025.5293.0051 1.0622.0025.5296c.0181 3.7853.035 7.3167.0371 7.796l.0002.0547c.0006.7237.585 1.2354 1.3086 1.2354.7236-.0005 1.3096-.5871 1.3091-1.3107l-.0002-.0299c-.0032-.4949-.0487-6.9454-.0519-7.4055l-.0002-.0259 3.1184-.0181.0479 7.5438h.0011c.0336.6834.5971 1.2276 1.2888 1.2271.6961 0 1.2618-.552 1.2882-1.242l-.0003-.0465-.0455-8.2173-.0029-.5275c-.0229-4.1347-.0458-8.2745-.0485-8.7758l-.0002-.0506c-.0006-.7181-.5828-1.3003-1.3009-1.2998-.7181.0006-1.3003.5828-1.2997 1.3009l.0002.0304c.0034.4866.0511 6.5963.0546 7.04l.0002.0254-3.1184.0182-.0002-.026c-.0027-.4538-.0394-6.7025-.0421-7.1886zm-4.767 5.5588c-.0005-.717-.5822-1.2976-1.2986-1.2976-.6928.0006-1.2569.5437-1.29483 1.2266v.0203c-.00023.0076-.00078.015-.00132.0224-.00072.0097-.00143.0194-.00143.0294 0 .0143.00098.0286.00196.0429.00049.0072.00098.0143.00134.0214l.07648 11.9218c-.07373.6361.3307 1.2448.9685 1.4076.6956.1778 1.4038-.2421 1.5815-.9382.0182-.0693.0281-.1387.0358-.208v-.016c.0055-.0709.0049-.1414-.0011-.2112l-.076-11.8833c.0044-.0457.0077-.0914.0077-.1381zm42.5565-6.6092c-.0424-.0055-.0842-.0055-.1316-.0055-.0418 0-.0842 0-.126.0055h-.0264l-6.2225-.0055v19.9536h6.3749c.4518 0 .8612-.1992 1.1397-.5145.2305-.2674.3725-.6141.3725-.9976 0-.383-.142-.7297-.3725-.9977-.2785-.3148-.6879-.5145-1.1397-.5145h-3.7336v-5.44h2.4207c.4518 0 .8612-.1998 1.1396-.5146.2311-.2679.3725-.6146.3725-.9976 0-.3836-.1414-.7297-.3725-.9977-.2784-.3153-.6878-.5145-1.1396-.5145h-2.4207v-5.44h3.7336c.4518 0 .8612-.1998 1.1397-.5145.2305-.268.3725-.6147.3725-.9977 0-.3835-.142-.7302-.3725-.9982-.2471-.2779-.5938-.4672-.9878-.509zm-26.5446 3.4337c.29-.3324.6399-.4997 1.0504-.5019.41-.0027.7594.1607 1.0489.4898.2894.329.4352.7296.4374 1.2018l.0622 10.8014c.0028.4727-.1386.8744-.4237 1.2068-.2856.3323-.6334.4996-1.0433.5018-.4105.0028-.7627-.1607-1.0565-.4897-.2933-.3291-.4414-.7297-.4441-1.2019l-.0622-10.8014c-.0028-.4721.1409-.8744.4309-1.2067zm32.5201 9.0056.9762-7.8608.9767 7.8608zm-48.1643-10.8843c-.0056-.9943-.7408-1.7966-1.6416-1.7912-.9013.005-1.62713.8156-1.62166 1.8099.00608.9949.74126 1.7972 1.64206 1.7923.9008-.0055 1.6266-.8161 1.6212-1.811z" fill="#fff" fill-rule="evenodd"/></svg>

<svg width="67" height="84" viewBox="0 0 67 84" fill="none" xmlns="http://www.w3.org/2000/svg">
<path fill-rule="evenodd" clip-rule="evenodd" d="M61.9197 28.2095C61.9197 12.63 49.2897 0 33.7102 0C18.1308 0 5.50078 12.63 5.50078 28.2095C5.50078 43.7889 18.1308 56.4184 33.7102 56.4184C49.2897 56.4184 61.9197 43.7889 61.9197 28.2095ZM30.8725 16.768L31.0125 16.7679C31.0733 16.768 31.1193 16.7685 31.1463 16.7688L31.174 16.7692L33.2365 16.7675L33.9837 16.7681L36.0462 16.7692L36.0527 16.7692L36.1436 16.7696C36.4998 16.7721 37.7322 16.7888 38.14 16.9018C38.5739 16.957 39.5617 17.9141 39.8351 18.1865L39.8878 18.2394L39.9064 18.2582L45.6463 24.2601C45.6463 24.2601 46.6852 25.1752 46.5823 26.6538C46.5562 27.0272 46.5211 28.9819 46.4909 30.9788L46.485 31.3783C46.4545 33.4404 46.4303 35.438 46.4274 35.6725L46.4272 35.6954L46.4296 35.7084C46.4449 35.794 46.5172 36.2994 46.2615 37.0612C45.9809 37.8988 45.413 38.7176 45.413 38.7176L39.1129 48.6C39.1129 48.6 38.8636 49.202 38.3573 49.4034C37.8924 49.5883 35.9411 49.6164 35.9411 49.6164H31.2791C31.2791 49.6164 29.9816 49.6026 29.6695 49.5619C28.3439 49.388 28.0611 48.4624 28.0611 48.4624L21.8072 38.7176C21.8072 38.7176 21.2525 37.8938 20.9586 37.0612C20.6973 36.3195 20.793 35.6954 20.793 35.6954L20.673 27.6861C20.673 27.6861 20.5223 26.0892 20.793 25.3249C21.0637 24.5611 22.1406 23.668 22.1406 23.668L27.3138 18.2582C27.3138 18.2582 27.3698 18.207 27.4622 18.1243L27.5661 18.0319C27.7189 17.8967 27.9251 17.7173 28.1383 17.5407L28.2988 17.4094C28.5127 17.2371 28.7222 17.0792 28.881 16.9827C29.1839 16.7986 30.3223 16.7706 30.8725 16.768ZM34.5786 37.7254C34.5786 37.3215 34.2479 36.9913 33.844 36.9913C33.4401 36.9913 33.1099 37.3215 33.1099 37.7254C33.1099 37.7254 33.0417 40.8592 33.0417 40.9604C33.0417 42.0258 32.175 42.893 31.1097 42.893C30.331 42.893 29.6322 42.4297 29.3284 41.7127C29.192 41.3897 28.8194 41.2383 28.4959 41.3748C28.1728 41.5118 28.0215 41.8844 28.1585 42.2074C28.6609 43.3954 29.8198 44.1636 31.1097 44.1636C32.2702 44.1636 33.2855 43.5402 33.8473 42.6129C34.4091 43.5402 35.4244 44.1631 36.5855 44.1631C37.8753 44.1631 39.0337 43.3954 39.5361 42.2074C39.6731 41.8844 39.5218 41.5113 39.1988 41.3748C38.8752 41.2378 38.5027 41.3891 38.3662 41.7121C38.063 42.4291 37.3641 42.8925 36.5855 42.8925C35.5196 42.8925 34.6529 42.0258 34.6529 40.9604C34.6529 40.8542 34.5786 37.7254 34.5786 37.7254ZM42.9465 23.9164C42.9465 23.48 42.5894 23.1229 42.153 23.1229H36.2365C35.9393 23.1229 35.6818 23.2907 35.5459 23.5351C35.4573 23.6572 35.4165 23.8135 35.4452 23.9731L35.4534 24.0171C35.4578 24.0496 35.4628 24.0815 35.471 24.1129L36.9474 32.1964L30.7188 32.1942L30.6231 32.2141L31.7715 24.131C31.7765 24.098 31.7765 24.0661 31.7753 24.0336C31.7753 24.0307 31.7759 24.0278 31.7764 24.0249C31.777 24.0219 31.7776 24.0188 31.7776 24.0155C31.7776 23.5791 31.4199 23.222 30.9835 23.222H25.0675C24.6311 23.222 24.274 23.5791 24.274 24.0155C24.274 24.4518 24.6311 24.809 25.0675 24.809H30.5097L29.4411 32.3302C29.4295 32.4116 29.4367 32.4908 29.4576 32.5651C29.4484 32.6478 29.4378 32.7749 29.436 32.9335L29.4362 33.0437C29.453 34.1705 29.9419 36.526 33.7497 36.4727L33.8376 36.4725C34.4913 36.4621 38.559 36.2261 38.1074 31.9538L38.0771 31.9604L36.7526 24.7099H42.153C42.5894 24.7099 42.9465 24.3528 42.9465 23.9164ZM32.5965 65.1523C31.7931 64.2328 30.8224 63.7766 29.6822 63.7832C28.5608 63.7898 27.6011 64.2543 26.8048 65.1771C26.0069 66.1005 25.6124 67.2181 25.6201 68.5299L25.6817 79.3C25.6894 80.6008 26.0922 81.7118 26.8907 82.6308C27.6891 83.5503 28.6582 84.006 29.7983 84C30.9286 83.9933 31.8927 83.5283 32.69 82.6055C33.4868 81.6821 33.8814 80.5651 33.8742 79.2526L33.8126 68.4832C33.8049 67.1817 33.3993 66.0713 32.5965 65.1523ZM63.3161 63.8275C62.9749 63.565 62.5496 63.4126 62.0873 63.4126C61.6256 63.4126 61.2003 63.565 60.8591 63.8275C60.4756 64.1219 60.1977 64.5467 60.0975 65.0403C60.0816 65.1086 60.0711 65.1719 60.0662 65.2401L57.5244 82.2481V82.2635C57.514 82.3108 57.5035 82.3581 57.498 82.411V82.4368C57.4931 82.4737 57.4931 82.5106 57.4931 82.5474C57.4931 83.0829 57.8029 83.5396 58.2491 83.7602C58.4274 83.8494 58.6327 83.9022 58.8478 83.9022C59.063 83.9022 59.2677 83.8494 59.4515 83.7602C59.8191 83.5765 60.0926 83.2353 60.1762 82.8204C60.1867 82.7731 60.1922 82.7312 60.1977 82.6784L60.6907 79.1814H63.4476L63.9099 82.6052L63.9357 82.8363C63.9357 82.8413 63.9357 82.8468 63.9412 82.8517C64.0359 83.2562 64.3143 83.5869 64.6764 83.7602C64.8602 83.8549 65.0599 83.9022 65.2751 83.9022C65.4902 83.9022 65.69 83.8549 65.8738 83.7602C66.3305 83.5396 66.6453 83.0724 66.6453 82.5315C66.6453 82.5105 66.6453 82.4893 66.6447 82.4682C66.644 82.4472 66.6428 82.4263 66.6403 82.4055C66.6348 82.3532 66.6299 82.3004 66.6194 82.2481C66.6194 82.2426 66.6194 82.2426 66.6139 82.2376L64.1146 65.2401C64.1091 65.1664 64.0986 65.0981 64.0832 65.0249C63.9781 64.5418 63.7051 64.1164 63.3161 63.8275ZM47.3639 64.5365C47.1014 64.1062 46.6238 63.8222 46.0829 63.8222H40.4062C39.8658 63.8222 39.3876 64.1062 39.1252 64.5365C38.9782 64.7676 38.894 65.0406 38.894 65.3344C38.894 65.6288 38.9782 65.9017 39.1252 66.1329C39.3876 66.5632 39.8658 66.8471 40.4062 66.8471H41.9294V82.579C41.9294 83.0935 42.2232 83.5453 42.6535 83.7605C42.8324 83.8496 43.0316 83.9019 43.2473 83.9019C43.4624 83.9019 43.6617 83.8551 43.8405 83.7605C44.2763 83.5453 44.5702 83.0985 44.5702 82.579V66.8471H45.9249C45.9778 66.8521 46.03 66.8521 46.0829 66.8521C46.1352 66.8521 46.188 66.8521 46.2403 66.8471C46.7129 66.7943 47.1279 66.5214 47.3639 66.1329C47.5108 65.9017 47.595 65.6233 47.595 65.3344C47.595 65.0406 47.5108 64.7676 47.3639 64.5365ZM2.84548 64.7282C2.70241 64.036 2.02502 63.5908 1.33222 63.7339C0.763232 63.8516 0.362079 64.3309 0.316406 64.8823L0.414356 83.8663L7.45792 83.8994C8.20409 83.841 8.79124 83.2181 8.79069 82.4571C8.79069 81.6911 8.19474 81.066 7.44141 81.0148L2.98305 81.0065L2.98302 81.0016L2.98271 80.9627C2.97542 80.0377 2.85509 64.7736 2.84548 64.7282ZM17.3357 64.8623C17.3357 64.1464 16.7551 63.5669 16.0398 63.5675C15.3244 63.5675 14.745 64.148 14.745 64.8634L14.7452 64.9122L14.7823 72.6633L14.7848 73.1926L14.7899 74.2548L14.7924 74.7844C14.8105 78.5697 14.8274 82.1011 14.8295 82.5804L14.8297 82.6351C14.8303 83.3588 15.4147 83.8705 16.1383 83.8705C16.8619 83.87 17.4479 83.2834 17.4474 82.5598L17.4472 82.5299C17.444 82.035 17.3985 75.5845 17.3953 75.1244L17.3951 75.0985L20.5135 75.0804L20.5614 82.6242H20.5625C20.5961 83.3076 21.1596 83.8518 21.8513 83.8513C22.5474 83.8513 23.1131 83.2993 23.1395 82.6093L23.1392 82.5628L23.0937 74.3455L23.0908 73.818C23.0679 69.6833 23.045 65.5435 23.0423 65.0422L23.0421 64.9916C23.0415 64.2735 22.4593 63.6913 21.7412 63.6918C21.0231 63.6924 20.4409 64.2746 20.4415 64.9927L20.4417 65.0231C20.4451 65.5097 20.4928 71.6194 20.4963 72.0631L20.4965 72.0885L17.3781 72.1067L17.3779 72.0807C17.3752 71.6269 17.3385 65.3782 17.3358 64.8921L17.3357 64.8623ZM12.5687 70.4211C12.5682 69.7041 11.9865 69.1235 11.2701 69.1235C10.5773 69.1241 10.0132 69.6672 9.97527 70.3501V70.3704C9.97504 70.378 9.97449 70.3854 9.97395 70.3928C9.97323 70.4025 9.97252 70.4122 9.97252 70.4222C9.97252 70.4365 9.9735 70.4508 9.97448 70.4651C9.97497 70.4723 9.97546 70.4794 9.97582 70.4865L10.0523 82.4083C9.97857 83.0444 10.383 83.6531 11.0208 83.8159C11.7164 83.9937 12.4246 83.5738 12.6023 82.8777C12.6205 82.8084 12.6304 82.739 12.6381 82.6697V82.6537C12.6436 82.5828 12.643 82.5123 12.637 82.4425L12.561 70.5592C12.5654 70.5135 12.5687 70.4678 12.5687 70.4211ZM55.1252 63.8119C55.0828 63.8064 55.041 63.8064 54.9936 63.8064C54.9518 63.8064 54.9094 63.8064 54.8676 63.8119H54.8412L48.6187 63.8064V83.76H54.9936C55.4454 83.76 55.8548 83.5608 56.1333 83.2455C56.3638 82.9781 56.5058 82.6314 56.5058 82.2479C56.5058 81.8649 56.3638 81.5182 56.1333 81.2502C55.8548 80.9354 55.4454 80.7357 54.9936 80.7357H51.26V75.2957H53.6807C54.1325 75.2957 54.5419 75.0959 54.8203 74.7811C55.0514 74.5132 55.1928 74.1665 55.1928 73.7835C55.1928 73.3999 55.0514 73.0538 54.8203 72.7858C54.5419 72.4705 54.1325 72.2713 53.6807 72.2713H51.26V66.8313H54.9936C55.4454 66.8313 55.8548 66.6315 56.1333 66.3168C56.3638 66.0488 56.5058 65.7021 56.5058 65.3191C56.5058 64.9356 56.3638 64.5889 56.1333 64.3209C55.8862 64.043 55.5395 63.8537 55.1455 63.8119H55.1252ZM28.5806 67.2456C28.8706 66.9132 29.2205 66.7459 29.631 66.7437C30.041 66.741 30.3904 66.9044 30.6799 67.2335C30.9693 67.5625 31.1151 67.9631 31.1173 68.4353L31.1795 79.2367C31.1823 79.7094 31.0409 80.1111 30.7558 80.4435C30.4702 80.7758 30.1224 80.9431 29.7125 80.9453C29.302 80.9481 28.9498 80.7846 28.656 80.4556C28.3627 80.1265 28.2146 79.7259 28.2119 79.2537L28.1497 68.4523C28.1469 67.9802 28.2906 67.5779 28.5806 67.2456ZM61.1007 76.2512L62.0769 68.3904L63.0536 76.2512H61.1007ZM12.9364 65.3669C12.9308 64.3726 12.1956 63.5703 11.2948 63.5757C10.3935 63.5807 9.66767 64.3913 9.67314 65.3856C9.67922 66.3805 10.4144 67.1828 11.3152 67.1779C12.216 67.1724 12.9418 66.3618 12.9364 65.3669Z" fill="white"/>
</svg>
